LinkedIn.svg

<?xml version="1.0" encoding="UTF-8" standalone="no"?>
<!-- Created with Inkscape (http://www.inkscape.org/) -->

<svg
   xmlns:dc="http://purl.org/dc/elements/1.1/"
   xmlns:cc="http://creativecommons.org/ns#"
   xmlns:rdf="http://www.w3.org/1999/02/22-rdf-syntax-ns#"
   xmlns:svg="http://www.w3.org/2000/svg"
   xmlns="http://www.w3.org/2000/svg"
   xmlns:xlink="http://www.w3.org/1999/xlink"
   xmlns:sodipodi="http://sodipodi.sourceforge.net/DTD/sodipodi-0.dtd"
   xmlns:inkscape="http://www.inkscape.org/namespaces/inkscape"
   width="100"
   height="100"
   id="svg3932"
   version="1.1"
   inkscape:version="0.48.4 r9939"
   sodipodi:docname="LinkedIn.svg">
  <metadata
     id="metadata13">
    <rdf:RDF>
      <cc:Work
         rdf:about="">
        <dc:format>image/svg+xml</dc:format>
        <dc:type
           rdf:resource="http://purl.org/dc/dcmitype/StillImage" />
        <dc:title />
      </cc:Work>
    </rdf:RDF>
  </metadata>
  <defs
     id="defs11">
    <linearGradient
       y2="796.64795"
       x2="334.28577"
       y1="1009.505"
       x1="644.28564"
       gradientTransform="matrix(0.14285713,0,0,0.19999998,0,-110.4725)"
       gradientUnits="userSpaceOnUse"
       id="linearGradient3058"
       xlink:href="#linearGradient5322-1"
       inkscape:collect="always" />
    <linearGradient
       id="linearGradient5322-1">
      <stop
         style="stop-color:#000000;stop-opacity:0.37391305;"
         offset="0"
         id="stop5324-6" />
      <stop
         style="stop-color:#000000;stop-opacity:0;"
         offset="1"
         id="stop5326-3" />
    </linearGradient>
    <linearGradient
       y2="796.64795"
       x2="334.28577"
       y1="1009.505"
       x1="644.28564"
       gradientTransform="matrix(0.14285713,0,0,0.19999998,0,-110.4725)"
       gradientUnits="userSpaceOnUse"
       id="linearGradient3033"
       xlink:href="#linearGradient5322-1"
       inkscape:collect="always" />
    <linearGradient
       inkscape:collect="always"
       xlink:href="#linearGradient5322"
       id="linearGradient3799"
       x1="-72.770866"
       y1="98.260445"
       x2="-108.53157"
       y2="74.678169"
       gradientUnits="userSpaceOnUse"
       gradientTransform="translate(157.25636,-12.92373)" />
    <linearGradient
       id="linearGradient5322">
      <stop
         style="stop-color:#000000;stop-opacity:0.37391305;"
         offset="0"
         id="stop5324" />
      <stop
         style="stop-color:#000000;stop-opacity:0;"
         offset="1"
         id="stop5326" />
    </linearGradient>
    <linearGradient
       y2="74.678169"
       x2="-108.53157"
       y1="98.260445"
       x1="-72.770866"
       gradientTransform="translate(157.25636,-12.923725)"
       gradientUnits="userSpaceOnUse"
       id="linearGradient3850"
       xlink:href="#linearGradient5322"
       inkscape:collect="always" />
  </defs>
  <sodipodi:namedview
     pagecolor="#ffffff"
     bordercolor="#666666"
     borderopacity="1"
     objecttolerance="10"
     gridtolerance="10"
     guidetolerance="10"
     inkscape:pageopacity="0"
     inkscape:pageshadow="2"
     inkscape:window-width="1920"
     inkscape:window-height="1145"
     id="namedview9"
     showgrid="false"
     inkscape:zoom="0.6675088"
     inkscape:cx="84.866497"
     inkscape:cy="82.564909"
     inkscape:window-x="-2"
     inkscape:window-y="-3"
     inkscape:window-maximized="1"
     inkscape:current-layer="svg3932" />
  <path
     style="fill:#1985bc;fill-opacity:1"
     d="M 87.864076,0 H 12.135922 C 5.4335009,0 0,5.43349 0,12.13592 V 87.86407 C 0,94.5665 5.4335009,100 12.135922,100 h 75.728154 c 6.70244,0 12.135922,-5.4335 12.135922,-12.13593 V 12.13592 C 99.999998,5.43349 94.566756,0 87.864076,0 z"
     id="path2991"
     inkscape:connector-curvature="0" />
  <path
     style="fill:#ffffff;fill-opacity:1"
     d="M 31.808509,83.25 H 18.08593 V 38.9165 H 31.808509 V 83.25 z"
     id="path2989"
     inkscape:connector-curvature="0" />
  <path
     style="fill:#ffffff;fill-opacity:1"
     d="m 24.88155,33.11092 c -4.48178,0 -8.11456,-3.66262 -8.11456,-8.18033 0,-4.51796 3.63278,-8.18059 8.11456,-8.18059 4.481319,0 8.114579,3.66263 8.114579,8.18059 0,4.51771 -3.63326,8.18033 -8.114579,8.18033 z"
     id="path2987"
     inkscape:connector-curvature="0" />
  <path
     style="fill:#ffffff;fill-opacity:1"
     d="M 83.233008,83.25 H 69.577189 c 0,0 0,-16.88884 0,-23.27208 0,-6.38252 -2.42428,-9.94514 -7.47112,-9.94514 -5.49248,0 -8.36238,3.71092 -8.36238,9.94514 0,6.8284 0,23.27208 0,23.27208 H 40.582769 V 38.9165 h 13.16092 v 5.97064 c 0,0 3.9585,-7.32306 13.35946,-7.32306 9.400979,0 16.129859,5.7398 16.129859,17.61456 0,11.87524 0,28.07136 0,28.07136 z"
     id="path7"
     inkscape:connector-curvature="0" />
  <path
     style="fill:#000000;fill-opacity:0.78431373;display:inline"
     d="M 12.1375,0 C 5.4350839,0 -2.0000165e-5,5.43508 0,12.1375 l 0,75.725 C 0,94.56491 5.4350839,100.00002 12.1375,100 l 75.725,0 C 94.56494,100 99.99998,94.56491 100,87.8625 l 0,-75.725 C 100,5.43508 94.56516,0 87.8625,0 L 12.1375,0 z M 18.19375,8 81.8,8 C 87.430236,8 92,12.56372 92,18.19375 L 92,81.8 C 91.999984,87.43002 87.43005,92 81.8,92 L 18.19375,92 C 12.56372,92.00002 7.9999998,87.43002 7.9999998,81.8 l 0,-63.60625 C 7.9999838,12.56372 12.56372,8 18.19375,8 z"
     id="path7-8-6-9"
     inkscape:connector-curvature="0" />
  <path
     style="fill:url(#linearGradient3850);fill-opacity:1;display:inline"
     d="M 12.1375,4.9999448e-6 C 5.43509,4.9999448e-6 -1.9999945e-5,5.435085 0,12.137505 L 0,87.862501 C 0,94.564901 5.43509,100.00002 12.1375,100 l 75.72501,0 C 94.56495,100 99.99999,94.564901 100,87.862501 l 0,-75.724996 C 100,5.435085 94.56517,4.9999448e-6 87.86251,4.9999448e-6 z"
     id="path7-8-6-9-9"
     inkscape:connector-curvature="0"
     sodipodi:nodetypes="sssssssss" />
</svg>

<svg xmlns="http://www.w3.org/2000/svg" viewBox="0 0 100 100"><defs><linearGradient y2="61.754" x2="48.725" y1="85.34" x1="84.49" gradientUnits="userSpaceOnUse" id="0"><stop stop-opacity=".374"/><stop offset="1" stop-opacity="0"/></linearGradient></defs><path d="m87.86 0h-75.73c-6.702 0-12.136 5.433-12.136 12.136v75.73c0 6.702 5.434 12.136 12.136 12.136h75.73c6.702 0 12.136-5.433 12.136-12.136v-75.73c0-6.702-5.433-12.136-12.136-12.136" fill="#1985bc"/><g fill="#fff"><path d="m31.809 83.25h-13.723v-44.33h13.723v44.33"/><path d="m24.882 33.11c-4.482 0-8.115-3.663-8.115-8.18 0-4.518 3.633-8.181 8.115-8.181 4.481 0 8.115 3.663 8.115 8.181 0 4.518-3.633 8.18-8.115 8.18"/><path d="m83.23 83.25h-13.656s0-16.889 0-23.272c0-6.383-2.424-9.945-7.471-9.945-5.492 0-8.362 3.711-8.362 9.945 0 6.828 0 23.272 0 23.272h-13.161v-44.33h13.161v5.971c0 0 3.959-7.323 13.359-7.323 9.401 0 16.13 5.74 16.13 17.615 0 11.875 0 28.07 0 28.07"/></g><path d="m12.138 0c-6.702 0-12.138 5.435-12.138 12.138v75.72c0 6.702 5.435 12.138 12.138 12.138h75.72c6.702 0 12.137-5.435 12.138-12.138v-75.72c0-6.702-5.435-12.138-12.138-12.138h-75.72m6.06 8h63.61c5.63 0 10.2 4.564 10.2 10.194v63.61c0 5.63-4.57 10.2-10.2 10.2h-63.61c-5.63 0-10.194-4.57-10.194-10.2v-63.61c0-5.63 4.564-10.194 10.194-10.194" fill-opacity=".784"/><path d="m12.138 0c-6.702 0-12.138 5.435-12.138 12.138v75.72c0 6.702 5.435 12.138 12.138 12.137h75.73c6.702 0 12.137-5.435 12.137-12.137v-75.72c0-6.702-5.435-12.138-12.137-12.138z" fill="url(#0)"/></svg>
